src/assets/selectIcons/arma_23.svg

<svg xmlns="http://www.w3.org/2000/svg" viewBox="0 0 512 512"><path d="M0 0h512v512H0z"/><path fill="#fff" d="M233.56 16.225l-15.535 54.302-79.183-12.79-2.98 18.45L212.85 88.62l-14.92 52.163 17.968 5.14 11.028-38.546c92.558 14.84 177.404 26.687 273.004 16.824-78.98-39.333-166.495-51.603-258.832-66.368l10.43-36.467-17.97-5.14zm-68.695 120.443l-13.482 12.953 69.644 72.493-59.63 34.428 9.347 16.19 44.098-25.46c83.234 86.485 160.743 164.186 267.683 231.242-48.682-97.16-128.987-177.16-212.025-263.375l40.176-23.198-9.346-16.19-63.625 36.734-72.84-75.816zm-87.11 13.424l-17.82 5.646 20.942 66.094-53.99 13.613 4.57 18.125 38.824-9.79c25.36 79.632 50.276 151.825 99.097 222.02 2.31-80.818-23.148-155.34-48.488-234.78l37.794-9.528-4.57-18.125-55.08 13.887-21.28-67.162z"/></svg>

<?xml version="1.0" encoding="UTF-8" standalone="no"?>
<!DOCTYPE svg PUBLIC "-//W3C//DTD SVG 1.1//EN" "http://www.w3.org/Graphics/SVG/1.1/DTD/svg11.dtd">
<svg width="100%" height="100%" viewBox="0 0 512 512" version="1.1" xmlns="http://www.w3.org/2000/svg" xmlns:xlink="http://www.w3.org/1999/xlink" xml:space="preserve" xmlns:serif="http://www.serif.com/" style="fill-rule:evenodd;clip-rule:evenodd;stroke-linejoin:round;stroke-miterlimit:2;">
    <rect x="0" y="0" width="512" height="512" style="fill-rule:nonzero;"/>
    <path d="M233.56,16.225L218.025,70.527L138.842,57.737L135.862,76.187L212.85,88.62L197.93,140.783L215.898,145.923L226.926,107.377C319.484,122.217 404.33,134.064 499.93,124.201C420.95,84.868 333.435,72.598 241.098,57.833L251.528,21.366L233.558,16.226L233.56,16.225ZM164.865,136.668L151.383,149.621L221.027,222.114L161.397,256.542L170.744,272.732L214.842,247.272C298.076,333.757 375.585,411.458 482.525,478.514C433.843,381.354 353.538,301.354 270.5,215.139L310.676,191.941L301.33,175.751L237.705,212.485L164.865,136.669L164.865,136.668ZM77.755,150.092L59.935,155.738L80.877,221.832L26.887,235.445L31.457,253.57L70.281,243.78C95.641,323.412 120.557,395.605 169.378,465.8C171.688,384.982 146.23,310.46 120.89,231.02L158.684,221.492L154.114,203.367L99.034,217.254L77.754,150.092L77.755,150.092Z" style="fill:rgb(195,194,194);fill-rule:nonzero;"/>
</svg>
